!!!COM:	Obrecht, Jacob
!!!CDT:	1458-1505/07/
!!!OPR:	Missa Adieu mes amours
!!!ONM:	5
!!!OTL:	Agnus Dei
!!!AGN:	Mass; Agnus Dei
!!!SCT:	Obr1001e
!!!SCA:	Obr1001e
!!!voices:	4
**kern	**kern	**kern	**kern
*staff4	*staff3	*staff2	*staff1
*Ivox	*Ivox	*Ivox	*Ivox
*I"Bassus	*I"Tenor	*I"Altus	*I"Superius
*I'B	*I'T	*I'A	*I'S
*>[A,B]	*>[A,B]	*>[A,B]	*>[A,B]
*>A	*>A	*>A	*>A
*clefF4	*clefGv2	*clefGv2	*clefG2
*k[b-]	*k[b-]	*k[b-]	*k[b-]
*M3/1	*M3/1	*M3/1	*M3/1
*met(O)	*met(O)	*met(O)	*met(O)
!!section: Agnus Dei I
!!!OMD: Agnus Dei I
=1-	=1-	=1-	=1-
0.r	0.r	1G	0.r
.	.	1B-	.
.	.	1A	.
=2	=2	=2	=2
0.r	0.r	1G	1g
.	.	1.d	1b-
.	.	.	1a
.	.	[2c\	.
=3	=3	=3	=3
0.r	0.r	2c\]	1g
.	.	1B-	.
.	.	.	1.dd
.	.	4A/	.
.	.	4G/	.
.	.	1F	.
.	.	.	[2cc\
=4	=4	=4	=4
0.r	0.r	1r	2cc\]
.	.	.	1b-
.	.	1G	.
.	.	.	4a/
.	.	.	4g/
.	.	1B-	1f
=5	=5	=5	=5
0.r	0.r	1A	1r
.	.	1G	1g
.	.	[1d	1b-
=6	=6	=6	=6
0.r	0.r	2d\]	1a
.	.	1c	.
.	.	.	1g
.	.	1B-	.
.	.	.	[1dd
.	.	4A/	.
.	.	4G/	.
=7	=7	=7	=7
0.r	0.r	2B-\	2dd\]
.	.	2A/	2cc\
.	.	2G/	2.b-\
.	.	2.d\	.
.	.	.	8a/L
.	.	.	8g/J
.	.	.	2b-\
.	.	4e\	.
.	.	2f\	2a/
=8	=8	=8	=8
0.r	0.r	2g\	2g/
.	.	2.e\	2.cc\
.	.	4d\	4b-\
.	.	1g	4a/
.	.	.	4g/
.	.	.	1a
.	.	2f\	.
=9	=9	=9	=9
0.r	0.r	2e\	2g/
.	.	2.c\	2.a/
.	.	4B-\	4g/
.	.	4A/	4f#i/
.	.	4G/	4e/
.	.	1A	1f#i
=10	=10	=10	=10
1r	1r	0G	0g
1r	1r	.	.
2r	2G/	1r	1r
2D\	2B-\	.	.
=11	=11	=11	=11
2F\	2A/	0.r	2r
2E\	2G/	.	2g/
2D\	2d\	.	2b-\
2A\	4r	.	2a/
.	2c\	.	.
4r	.	.	2g/
2G\	4B-\	.	.
.	2A/	.	2dd\
4F\	.	.	.
=12	=12	=12	=12
2E\	2G/	0.r	4r
.	.	.	2cc\
2D\	2F/	.	.
.	.	.	4b-\
2C/	2r	.	2a/
2r	2G/	.	2g/
2D\	2B-\	.	2f/
2F\	2A/	.	2r
=13	=13	=13	=13
2E\	2G/	1r	2g/
2D\	2d\	.	2b-\
2A\	4r	1r	2a/
.	2c\	.	.
4r	.	.	4g/
2G\	4B-\	.	2b-\
.	2G/	2r	.
4E\	.	.	8a/L
.	.	.	8g/J
2D\	2A/	[2d\	2f#i/
=14	=14	=14	=14
2GG/	0G	2d\]	1g
2.G\	.	2.B-\	.
.	.	.	1b-
4F\	.	4A/	.
2G\	.	1G	.
1D	1r	.	1a
.	.	2F#i/	.
=15	=15	=15	=15
2GG/	1G	1G	2g/
2.G\	.	.	1b-
.	1B-	2d\	.
4F\	.	.	.
2G\	.	2.d\	4a/
.	.	.	4g/
1D	1A	.	1f#i
.	.	4c\	.
.	.	2A/	.
=16	=16	=16	=16
2GG/	1G	2.B-\	1g
2G\	.	.	.
.	.	8A/L	.
.	.	8B-/J	.
2F\	[0d	2A/	2a/
2G\	.	2G/	1b-
2.B-\	.	2.G/	.
.	.	.	4a/
8A\L	.	8F/L	4g/
8B-\J	.	8E/J	.
=17	=17	=17	=17
2A\	0.d]	2D/	2f/
1G	.	2G/	2g/
.	.	1r	2.b-\
4F\	.	.	.
4E\	.	.	8a/L
.	.	.	8b-/J
2F\	.	1r	2a/
2G\	.	.	2g/
=18	=18	=18	=18
4GG/	1.d	2.B-\	2b-\
4AA/	.	.	.
4BB-/	.	.	4a/
4C/	.	8A/L	4g/
.	.	8B-/J	.
2D\	.	2A/	2f/
2E\	2.c\	2G/	2.g/
2F\	.	2c\	.
.	4A/	.	4f/
2BB-/	2B-\	2d\	[2f/
=19	=19	=19	=19
1C	1G	1c	2f/]
.	.	.	2e/
2D\	0F	1.A	1.f
1D	.	.	.
4C/	.	2B-\	2g/
4BB-/	.	.	.
=20	=20	=20	=20
1AA	1r	1c	1a
0GG	1r	2.d\	2b-\
.	.	.	1g
.	.	8c\L	.
.	.	8d\J	.
.	1G	2e-i\	.
.	.	[2d\	4f/
.	.	.	4e/
=21	=21	=21	=21
1G	1B-	4d\]	2d/
.	.	4c\	.
.	.	4B-\	2.dd\
.	.	8A/L	.
.	.	8G/J	.
2D\	1A	1F	.
.	.	.	4cc\
2F\	.	.	2a/
1E	1G	2r	2b-\
.	.	2G/	4a/
.	.	.	4g/
=22	=22	=22	=22
2D\	0d	2A/	1f
2.BB-/	.	1B-	.
.	.	.	1f
4C/	.	.	.
4D\	.	4A/	.
4E\	.	4G/	.
2.F\	1c	2A/	1r
.	.	2D/	.
8G\L	.	.	.
8A\J	.	.	.
=23	=23	=23	=23
2B-\	2B-\	2G/	0.r
2.A\	2.c\	1F	.
4G\	4B-\	.	.
1G	4A/	2G/	.
.	4G/	.	.
.	1A	1D	.
2F#i\	.	.	.
=24	=24	=24	=24
2G\	2G/	0d	1g
2.GG/	2.B-\	.	.
.	.	.	1b-
4AA/	4A/	.	.
2BB-/	1G	.	.
2C/	.	2r	1a
2D\	2F#i/	[2d\	.
=25	=25	=25	=25
2GG/	0G	2d\]	1g
2C/	.	2e-i\	.
2BB-/	.	2d\	0dd
1GG	.	2.B-\	.
.	1B-	.	.
.	.	4c\	.
2G\	.	4d\	.
.	.	4e\	.
=26	=26	=26	=26
2.A\	1c	2.f\	1cc
8G\L	.	8e\L	.
8A\J	.	8f\J	.
2G\	2d\	1.g	2b-\
2C/	2.e-i\	.	2.cc\
1E-i	.	.	.
.	4d\	.	4b-\
.	4c\	4f\	4a/
.	4B-\	4e\	4g/
=27	=27	=27	=27
2D\	1d	1.f	2b-\
1F	.	.	2.a/
.	2c\	.	.
.	.	.	4g/
2G\	2B-\	2.d\	1g
1D	1A	.	.
.	.	4c\	.
.	.	2A/	2f#i/
=28	=28	=28	=28
0.GGl	0.Gl	2.B-\	0.gl
.	.	4c\	.
.	.	0dl	.
!!LO:LB:i:g=z
=29||	=29||	=29||	=29||
*>B	*>B	*>B	*>B
*clefF4	*clefGv2	*clefGv2	*clefG2
*k[b-]	*k[b-]	*k[b-]	*k[b-]
*M2/1	*M2/1	*M2/1	*M2/1
*met(C|)	*met(C|)	*met(C|)	*met(C|)
!!section: Agnus Dei II
!!!OMD: Agnus Dei II
0r	1G	1.G	0r
.	1E	.	.
.	.	[2c\	.
=30	=30	=30	=30
0r	1F	2c\]	0r
.	.	4Bni\	.
.	.	4A/	.
.	1G	1Bni	.
=31	=31	=31	=31
0r	[0C	1.c	1.c
.	.	2B-\	[2f/
=32	=32	=32	=32
0r	0C]	2A/	2f/]
.	.	4G/	4e/
.	.	4F/	4d/
.	.	1G	1e
=33	=33	=33	=33
0r	1.D	0F	1f
.	.	.	1r
.	2E/	.	.
=34	=34	=34	=34
0r	1F	1A	1.d
.	1G	2B-\	.
.	.	[2d\	[2g/
=35	=35	=35	=35
0r	0A	2d\]	2g/]
.	.	4c\	4f#i/
.	.	4B-\	4e/
.	.	1c	1f#i
=36	=36	=36	=36
0r	1G	1d	1.g
.	1E	1r	.
.	.	.	[2cc\
=37	=37	=37	=37
0r	1F	0d	2cc\]
.	.	.	4bni\
.	.	.	4a/
.	1G	.	1bni
=38	=38	=38	=38
0r	0C	1e-	1.cc
.	.	1e-i	.
.	.	.	4b-\
.	.	.	4cc\
=39	=39	=39	=39
0r	1.D	1.d	2b-\
.	.	.	2.a/
.	.	.	4g/
.	2E/	2c\	4f/
.	.	.	4e/
=40	=40	=40	=40
0r	1G	2B-\	1d
.	.	4A/	.
.	.	4G/	.
.	1F	1A	1r
=41	=41	=41	=41
0r	[0G	4G/	1.g
.	.	4A/	.
.	.	4B-\	.
.	.	4c\	.
.	.	4d\	.
.	.	4e-i\	.
.	.	[2d\	2f/
=42	=42	=42	=42
0r	0G]	2d\]	2e/
.	.	1c	4d/
.	.	.	4c/
.	.	.	1d
.	.	2Bni\	.
=43	=43	=43	=43
0r	0r	1c	2c/
.	.	.	2.e/
.	.	1e	.
.	.	.	4d/
.	.	.	[2c/
=44	=44	=44	=44
0r	1G	1d	2c/]
.	.	.	2Bni/
.	1C	2c\	1c
.	.	[2e\	.
=45	=45	=45	=45
0r	1E	4e\]	1g
.	.	4d\	.
.	.	1c	.
.	1D	.	1f
.	.	2Bni\	.
=46	=46	=46	=46
0r	0C	1.c	2e/
.	.	.	2.e/
.	.	.	4d/
.	.	[2A/	4c/
.	.	.	4B-/
=47	=47	=47	=47
0r	1.D	4A/]	2A/
.	.	4G/	.
.	.	1F	2.a/
.	.	.	4b-\
.	2E/	4E/	[2cc\
.	.	4D/	.
=48	=48	=48	=48
0r	1G	2C/	2cc\]
.	.	2E/	4bni\
.	.	.	4a/
.	1F	1D	1bni
=49	=49	=49	=49
0r	[0G	2C/	2cc\
.	.	2.E/	2.g/
.	.	4D/	4f/
.	.	[2C/	[2e/
=50	=50	=50	=50
0r	0G]	2C/]	2e/]
.	.	4BBni/	4d/
.	.	4AA/	4c/
.	.	1BBni	1d
=51	=51	=51	=51
0r	1G	1C	1c
.	1C	2r	1r
.	.	[2G/	.
=52	=52	=52	=52
0r	1E	2G/]	1c
.	.	4F/	.
.	.	4E/	.
.	1D	1F	2d/
.	.	.	[2f/
=53	=53	=53	=53
0r	0C	1.G	2f/]
.	.	.	4e/
.	.	.	4d/
.	.	.	1e
.	.	[2A/	.
=54	=54	=54	=54
0r	1.D	4A/]	1.A
.	.	4G/	.
.	.	1F	.
.	2E/	4E/	[2c/
.	.	4D/	.
=55	=55	=55	=55
0r	1G	2C/	2c/]
.	.	2E/	4B-/
.	.	.	4A/
.	1F	1D	1B-
=56	=56	=56	=56
0r	[0G	1C	1c
.	.	2r	1e-i
.	.	[2c\	.
=57	=57	=57	=57
0r	0G]	2c\]	1.d
.	.	4B-\	.
.	.	4A/	.
.	.	2B-\	.
.	.	2E-i/	4e-i/
.	.	.	4f/
=58	=58	=58	=58
0r	1G	1E-i	1.g
.	1E	2r	.
.	.	[2c\	4f/
.	.	.	4g/
=59	=59	=59	=59
0r	1F	2c\]	1a
.	.	4B-\	.
.	.	4A/	.
.	1G	2B-\	1g
.	.	2E-i/	.
=60	=60	=60	=60
0r	0C	2.E-i/	2r
.	.	.	2.cc\
.	.	4F/	.
.	.	2G/	.
.	.	.	4b-\
.	.	[2A/	4a/
.	.	.	4g/
=61	=61	=61	=61
0r	1.D	2A/]	1f
.	.	1B-	.
.	.	.	1g
.	2E/	[2c\	.
=62	=62	=62	=62
0r	1F	2c\]	1a
.	.	1d	.
.	1G	.	1b-
.	.	[2e\	.
=63	=63	=63	=63
0r	0A	2e\]	1.cc
.	.	2.f\	.
.	.	4e\	.
.	.	2c\	4b-\
.	.	.	4a/
=64	=64	=64	=64
0r	1G	2d\	2b-\
.	.	2.e\	2.g/
.	1E	.	.
.	.	4c\	4a/
.	.	[2g\	4b-\
.	.	.	4cc\
=65	=65	=65	=65
0r	1F	2g\]	2dd\
.	.	4f\	1cc
.	.	4e\	.
.	1G	1d	.
.	.	.	2bni\
=66	=66	=66	=66
0r	0C	2r	2.cc\
.	.	2.c\	.
.	.	.	4b-\
.	.	.	4a/
.	.	4B-\	4g/
.	.	4A/	[2a/
.	.	4G/	.
=67	=67	=67	=67
0r	1.D	2F/	4a/]
.	.	.	4g/
.	.	2D/	4f/
.	.	.	4e/
.	.	2F/	2d/
.	2E/	2G/	[2b-\
=68	=68	=68	=68
0r	1G	1E	2b-\]
.	.	.	4a/
.	.	.	4g/
.	1F#i	1D	1a
=69	=69	=69	=69
0r	0G	1.d	2g/
.	.	.	1b-
.	.	[2B-\	4a/
.	.	.	4g/
=70	=70	=70	=70
0r	0r	2B-\]	2f/
.	.	4A/	1g
.	.	4G/	.
.	.	1A	.
.	.	.	2f#i/
=71	=71	=71	=71
0r	0Gl	0Gl	0gl
==	==	==	==
*-	*-	*-	*-
!!!RDF**kern: l=long note in original notation
!!!RDF**kern: i=editorial accidental
!!!ENC:	Jesse Rodin 2013
!!!END:	2013/05/07/
!!!EED:	Jesse Rodin
!!!EEV:	2014/01/03/
!!!ONB:	Translated from MusicXML and edited on 2014/01/03/ by Craig Sapp
!!muse2ps: T^@{OPR}^u^@{ONM}{. }@{OTL}^C^@{COM}^i2I150v85,85,85,150Q16
